TGraph/macro2.svg

<svg xmlns="http://www.w3.org/2000/svg" viewBox="0 0 1200 800" preserveAspectRatio="none" width="1200" height="800">
 <path d="M0,0H1200V800H0Z" style="fill: white;"></path>
 <g>
  <g transform="translate(120,80)">
   <path d="M0,0H960V640H0Z" style="fill: white; stroke: black; stroke-width: 1;"></path>
   <g>
    <path d="M80,0v640M169,0v640M258,0v640M347,0v640M436,0v640M524,0v640M613,0v640M702,0v640M791,0v640M880,0v640" style="stroke: black; stroke-width: 1; stroke-dasharray: 1,2;"></path>
    <path d="M0,640h960M0,556h960M0,472h960M0,388h960M0,304h960M0,220h960M0,136h960M0,51h960" style="stroke: black; stroke-width: 1; stroke-dasharray: 1,2;"></path>
   </g>
   <svg x="0" y="0" overflow="hidden" width="960" height="640" viewBox="0 0 960 640">
    <g>
     <path d="M80,594l89,-46l89,-47l89,-46l89,-36l88,-40l89,-47l89,-38l89,-45l89,-32L880,54l-89,69l-89,56l-89,62l-89,55l-88,61l-89,64l-89,55l-89,55l-89,54Z" style="fill: yellow;"></path>
     <path d="M80,590l89,-51l89,-50l89,-51l89,-50l88,-51l89,-50l89,-51l89,-50l89,-50" style="stroke: black; stroke-width: 1; fill: none;"></path>
    </g>
    <g>
     <g transform="translate(80,590)">
      <path style="stroke: black; stroke-width: 1; fill: none;" d="M0,0V42m3,0h-6M0,0V-42m3,0h-6"></path>
     </g>
     <g transform="translate(169,539)">
      <path style="stroke: black; stroke-width: 1; fill: none;" d="M0,0V42m3,0h-6M0,0V-42m3,0h-6"></path>
     </g>
     <g transform="translate(258,522)">
      <path style="stroke: black; stroke-width: 1; fill: none;" d="M0,0V40m3,0h-6M0,0V-40m3,0h-6"></path>
     </g>
     <g transform="translate(347,472)">
      <path style="stroke: black; stroke-width: 1; fill: none;" d="M0,0V38m3,0h-6M0,0V-38m3,0h-6"></path>
     </g>
     <g transform="translate(436,455)">
      <path style="stroke: black; stroke-width: 1; fill: none;" d="M0,0V35m3,0h-6M0,0V-35m3,0h-6"></path>
     </g>
     <g transform="translate(524,438)">
      <path style="stroke: black; stroke-width: 1; fill: none;" d="M0,0V43m3,0h-6M0,0V-43m3,0h-6"></path>
     </g>
     <g transform="translate(613,346)">
      <path style="stroke: black; stroke-width: 1; fill: none;" d="M0,0V24m3,0h-6M0,0V-24m3,0h-6"></path>
     </g>
     <g transform="translate(702,262)">
      <path style="stroke: black; stroke-width: 1; fill: none;" d="M0,0V34m3,0h-6M0,0V-34m3,0h-6"></path>
     </g>
     <g transform="translate(791,270)">
      <path style="stroke: black; stroke-width: 1; fill: none;" d="M0,0V40m3,0h-6M0,0V-40m3,0h-6"></path>
     </g>
     <g transform="translate(880,194)">
      <path style="stroke: black; stroke-width: 1; fill: none;" d="M0,0V46m3,0h-6M0,0V-46m3,0h-6"></path>
     </g>
     <path d="M76,590a4,4,0,1,0,8,0a4,4,0,1,0,-8,0zM165,539a4,4,0,1,0,8,0a4,4,0,1,0,-8,0zM254,522a4,4,0,1,0,8,0a4,4,0,1,0,-8,0zM343,472a4,4,0,1,0,8,0a4,4,0,1,0,-8,0zM432,455a4,4,0,1,0,8,0a4,4,0,1,0,-8,0zM520,438a4,4,0,1,0,8,0a4,4,0,1,0,-8,0zM609,346a4,4,0,1,0,8,0a4,4,0,1,0,-8,0zM698,262a4,4,0,1,0,8,0a4,4,0,1,0,-8,0zM787,270a4,4,0,1,0,8,0a4,4,0,1,0,-8,0zM876,194a4,4,0,1,0,8,0a4,4,0,1,0,-8,0z" style="stroke: black; fill: none;"></path>
    </g>
   </svg>
   <g>
    <g transform="translate(0,640)">
     <path d="M0,0h960M9,-12v12m18,-12v12m17,-12v12m18,-12v12m18,-24v24m18,-12v12m18,-12v12m17,-12v12m18,-12v12m18,-24v24m18,-12v12m17,-12v12m18,-12v12m18,-12v12m18,-24v24m18,-12v12m17,-12v12m18,-12v12m18,-12v12m18,-24v24m17,-12v12m18,-12v12m18,-12v12m18,-12v12m18,-24v24m17,-12v12m18,-12v12m18,-12v12m18,-12v12m17,-24v24m18,-12v12m18,-12v12m18,-12v12m18,-12v12m17,-24v24m18,-12v12m18,-12v12m18,-12v12m17,-12v12m18,-24v24m18,-12v12m18,-12v12m18,-12v12m17,-12v12m18,-24v24m18,-12v12m18,-12v12m17,-12v12m18,-12v12m18,-24v24m18,-12v12m18,-12v12m17,-12v12m18,-12v12" style="stroke: black; stroke-width: 1;"></path>
     <g font-family="Arial" font-size="28" space="preserve" fill="black" text-anchor="middle">
      <text dy=".8em" transform="translate(80,6)">
       1
      </text>
      <text dy=".8em" transform="translate(169,6)">
       2
      </text>
      <text dy=".8em" transform="translate(258,6)">
       3
      </text>
      <text dy=".8em" transform="translate(347,6)">
       4
      </text>
      <text dy=".8em" transform="translate(436,6)">
       5
      </text>
      <text dy=".8em" transform="translate(524,6)">
       6
      </text>
      <text dy=".8em" transform="translate(613,6)">
       7
      </text>
      <text dy=".8em" transform="translate(702,6)">
       8
      </text>
      <text dy=".8em" transform="translate(791,6)">
       9
      </text>
      <text dy=".8em" transform="translate(880,6)">
       10
      </text>
     </g>
     <g font-family="Arial" font-size="28" space="preserve" transform="translate(960,45)">
      <text fill="black" text-anchor="end" dy=".4em">
       lenght [cm]
      </text>
     </g>
    </g>
    <g>
     <path d="M0,0v640M36,640h-36m18,-17h-18m18,-17h-18m18,-16h-18m18,-17h-18m36,-17h-36m18,-17h-18m18,-17h-18m18,-17h-18m18,-16h-18m36,-17h-36m18,-17h-18m18,-17h-18m18,-17h-18m18,-16h-18m36,-17h-36m18,-17h-18m18,-17h-18m18,-17h-18m18,-16h-18m36,-17h-36m18,-17h-18m18,-17h-18m18,-17h-18m18,-17h-18m36,-16h-36m18,-17h-18m18,-17h-18m18,-17h-18m18,-17h-18m36,-16h-36m18,-17h-18m18,-17h-18m18,-17h-18m18,-17h-18m36,-17h-36m18,-16h-18m18,-17h-18m18,-17h-18" style="stroke: black; stroke-width: 1;"></path>
     <g font-family="Arial" font-size="28" space="preserve" fill="black" text-anchor="end">
      <text dy=".4em" transform="translate(-4,640)">
       0
      </text>
      <text dy=".4em" transform="translate(-4,556)">
       10
      </text>
      <text dy=".4em" transform="translate(-4,472)">
       20
      </text>
      <text dy=".4em" transform="translate(-4,388)">
       30
      </text>
      <text dy=".4em" transform="translate(-4,304)">
       40
      </text>
      <text dy=".4em" transform="translate(-4,220)">
       50
      </text>
      <text dy=".4em" transform="translate(-4,136)">
       60
      </text>
      <text dy=".4em" transform="translate(-4,51)">
       70
      </text>
     </g>
     <g font-family="Arial" font-size="28" space="preserve" transform="translate(-67,0)">
      <text fill="black" text-anchor="end" dy=".4em" transform=" rotate(270)">
       Arb.Units
      </text>
     </g>
    </g>
   </g>
  </g>
  <g transform="translate(120,80)" font-family="Arial" font-size="19" space="preserve">
   <path d="M0,0H240V160H0Z" style="fill: white; stroke: black; stroke-width: 1;"></path>
   <text fill="black" text-anchor="start" dy=".4em" transform="translate(60,30)">
    Lab. Lesson 2
   </text>
   <path d="M7,60v40h46v-40z" style="fill: yellow;"></path>
   <path d="M7,80H53" style="stroke: black; stroke-width: 1;"></path>
   <path d="M30,80h1" style="stroke: black; fill: none;"></path>
   <text fill="black" text-anchor="start" dy=".4em" transform="translate(60,80)">
    Expected Points
   </text>
   <path d="M7,110v40h46v-40z" style="fill: white;"></path>
   <path d="M7,130H53" style="stroke: black; stroke-width: 1;"></path>
   <path d="M26,130a4,4,0,1,0,8,0a4,4,0,1,0,-8,0z" style="stroke: black; fill: none;"></path>
   <text fill="black" text-anchor="start" dy=".4em" transform="translate(60,130)">
    Measured Points
   </text>
  </g>
  <g transform="translate(245,4)" font-family="Arial" font-size="37" space="preserve">
   <text fill="black" text-anchor="middle" dy=".4em" transform="translate(355,25)">
    Measurement XYZ and Expectation
   </text>
  </g>
 </g>
</svg>

<svg xmlns="http://www.w3.org/2000/svg" viewBox="0 0 1200 800" preserveAspectRatio="none" width="1200" height="800">
 <path d="M0,0H1200V800H0Z" style="fill: white;"></path>
 <g>
  <g transform="translate(120,80)">
   <path d="M0,0H960V640H0Z" style="fill: white; stroke: black; stroke-width: 1;"></path>
   <g>
    <path d="M80,0v640M169,0v640M258,0v640M347,0v640M436,0v640M524,0v640M613,0v640M702,0v640M791,0v640M880,0v640" style="stroke: black; stroke-width: 1; stroke-dasharray: 1,2;"></path>
    <path d="M0,640h960M0,556h960M0,472h960M0,388h960M0,304h960M0,220h960M0,136h960M0,51h960" style="stroke: black; stroke-width: 1; stroke-dasharray: 1,2;"></path>
   </g>
   <svg x="0" y="0" overflow="hidden" width="960" height="640" viewBox="0 0 960 640">
    <g>
     <path d="M80,594l89,-46l89,-47l89,-46l89,-36l88,-40l89,-47l89,-38l89,-45l89,-32L880,54l-89,69l-89,56l-89,62l-89,55l-88,61l-89,64l-89,55l-89,55l-89,54Z" style="fill: yellow;"></path>
     <path d="M80,590l89,-51l89,-50l89,-51l89,-50l88,-51l89,-50l89,-51l89,-50l89,-50" style="stroke: black; stroke-width: 1; fill: none;"></path>
    </g>
    <g>
     <g transform="translate(80,590)">
      <path style="stroke: black; stroke-width: 1; fill: none;" d="M0,0V42m3,0h-6M0,0V-42m3,0h-6"></path>
     </g>
     <g transform="translate(169,539)">
      <path style="stroke: black; stroke-width: 1; fill: none;" d="M0,0V42m3,0h-6M0,0V-42m3,0h-6"></path>
     </g>
     <g transform="translate(258,522)">
      <path style="stroke: black; stroke-width: 1; fill: none;" d="M0,0V40m3,0h-6M0,0V-40m3,0h-6"></path>
     </g>
     <g transform="translate(347,472)">
      <path style="stroke: black; stroke-width: 1; fill: none;" d="M0,0V38m3,0h-6M0,0V-38m3,0h-6"></path>
     </g>
     <g transform="translate(436,455)">
      <path style="stroke: black; stroke-width: 1; fill: none;" d="M0,0V35m3,0h-6M0,0V-35m3,0h-6"></path>
     </g>
     <g transform="translate(524,438)">
      <path style="stroke: black; stroke-width: 1; fill: none;" d="M0,0V43m3,0h-6M0,0V-43m3,0h-6"></path>
     </g>
     <g transform="translate(613,346)">
      <path style="stroke: black; stroke-width: 1; fill: none;" d="M0,0V24m3,0h-6M0,0V-24m3,0h-6"></path>
     </g>
     <g transform="translate(702,262)">
      <path style="stroke: black; stroke-width: 1; fill: none;" d="M0,0V34m3,0h-6M0,0V-34m3,0h-6"></path>
     </g>
     <g transform="translate(791,270)">
      <path style="stroke: black; stroke-width: 1; fill: none;" d="M0,0V40m3,0h-6M0,0V-40m3,0h-6"></path>
     </g>
     <g transform="translate(880,194)">
      <path style="stroke: black; stroke-width: 1; fill: none;" d="M0,0V46m3,0h-6M0,0V-46m3,0h-6"></path>
     </g>
     <path d="M76,590a4,4,0,1,0,8,0a4,4,0,1,0,-8,0zM165,539a4,4,0,1,0,8,0a4,4,0,1,0,-8,0zM254,522a4,4,0,1,0,8,0a4,4,0,1,0,-8,0zM343,472a4,4,0,1,0,8,0a4,4,0,1,0,-8,0zM432,455a4,4,0,1,0,8,0a4,4,0,1,0,-8,0zM520,438a4,4,0,1,0,8,0a4,4,0,1,0,-8,0zM609,346a4,4,0,1,0,8,0a4,4,0,1,0,-8,0zM698,262a4,4,0,1,0,8,0a4,4,0,1,0,-8,0zM787,270a4,4,0,1,0,8,0a4,4,0,1,0,-8,0zM876,194a4,4,0,1,0,8,0a4,4,0,1,0,-8,0z" style="stroke: black; fill: none;"></path>
    </g>
   </svg>
   <g>
    <g transform="translate(0,640)">
     <path d="M0,0h960M9,-12V0M27,-12V0M44,-12V0M62,-12V0M80,-24V0M98,-12V0M116,-12V0M133,-12V0M151,-12V0M169,-24V0M187,-12V0M204,-12V0M222,-12V0M240,-12V0M258,-24V0M276,-12V0M293,-12V0M311,-12V0M329,-12V0M347,-24V0M364,-12V0M382,-12V0M400,-12V0M418,-12V0M436,-24V0M453,-12V0M471,-12V0M489,-12V0M507,-12V0M524,-24V0M542,-12V0M560,-12V0M578,-12V0M596,-12V0M613,-24V0M631,-12V0M649,-12V0M667,-12V0M684,-12V0M702,-24V0M720,-12V0M738,-12V0M756,-12V0M773,-12V0M791,-24V0M809,-12V0M827,-12V0M844,-12V0M862,-12V0M880,-24V0M898,-12V0M916,-12V0M933,-12V0M951,-12V0" style="stroke: black; stroke-width: 1;"></path>
     <g font-family="Arial" font-size="28" space="preserve" fill="black" text-anchor="middle">
      <text dy=".8em" transform="translate(80,6)">
       1
      </text>
      <text dy=".8em" transform="translate(169,6)">
       2
      </text>
      <text dy=".8em" transform="translate(258,6)">
       3
      </text>
      <text dy=".8em" transform="translate(347,6)">
       4
      </text>
      <text dy=".8em" transform="translate(436,6)">
       5
      </text>
      <text dy=".8em" transform="translate(524,6)">
       6
      </text>
      <text dy=".8em" transform="translate(613,6)">
       7
      </text>
      <text dy=".8em" transform="translate(702,6)">
       8
      </text>
      <text dy=".8em" transform="translate(791,6)">
       9
      </text>
      <text dy=".8em" transform="translate(880,6)">
       10
      </text>
     </g>
     <g font-family="Arial" font-size="28" space="preserve" transform="translate(960,45)">
      <text fill="black" text-anchor="end" dy=".4em">
       lenght [cm]
      </text>
     </g>
    </g>
    <g>
     <path d="M0,0v640M36,640H0M18,623H0M18,606H0M18,590H0M18,573H0M36,556H0M18,539H0M18,522H0M18,505H0M18,489H0M36,472H0M18,455H0M18,438H0M18,421H0M18,405H0M36,388H0M18,371H0M18,354H0M18,337H0M18,321H0M36,304H0M18,287H0M18,270H0M18,253H0M18,236H0M36,220H0M18,203H0M18,186H0M18,169H0M18,152H0M36,136H0M18,119H0M18,102H0M18,85H0M18,68H0M36,51H0M18,35H0M18,18H0M18,1H0" style="stroke: black; stroke-width: 1;"></path>
     <g font-family="Arial" font-size="28" space="preserve" fill="black" text-anchor="end">
      <text dy=".4em" transform="translate(-4,640)">
       0
      </text>
      <text dy=".4em" transform="translate(-4,556)">
       10
      </text>
      <text dy=".4em" transform="translate(-4,472)">
       20
      </text>
      <text dy=".4em" transform="translate(-4,388)">
       30
      </text>
      <text dy=".4em" transform="translate(-4,304)">
       40
      </text>
      <text dy=".4em" transform="translate(-4,220)">
       50
      </text>
      <text dy=".4em" transform="translate(-4,136)">
       60
      </text>
      <text dy=".4em" transform="translate(-4,51)">
       70
      </text>
     </g>
     <g font-family="Arial" font-size="28" space="preserve" transform="translate(-67,0)">
      <text fill="black" text-anchor="end" dy=".4em" transform=" rotate(270)">
       Arb.Units
      </text>
     </g>
    </g>
   </g>
  </g>
  <g transform="translate(120,80)" font-family="Arial" font-size="19" space="preserve">
   <path d="M0,0H240V160H0Z" style="fill: white; stroke: black; stroke-width: 1;"></path>
   <text fill="black" text-anchor="start" dy=".4em" transform="translate(60,30)">
    Lab. Lesson 2
   </text>
   <path d="M7,60v40h46v-40z" style="fill: yellow;"></path>
   <path d="M7,80H53" style="stroke: black; stroke-width: 1;"></path>
   <path d="M30,80h1" style="stroke: black; fill: none;"></path>
   <text fill="black" text-anchor="start" dy=".4em" transform="translate(60,80)">
    Expected Points
   </text>
   <path d="M7,110v40h46v-40z" style="fill: white;"></path>
   <path d="M7,130H53" style="stroke: black; stroke-width: 1;"></path>
   <path d="M26,130a4,4,0,1,0,8,0a4,4,0,1,0,-8,0z" style="stroke: black; fill: none;"></path>
   <text fill="black" text-anchor="start" dy=".4em" transform="translate(60,130)">
    Measured Points
   </text>
  </g>
  <g transform="translate(245,4)" font-family="Arial" font-size="37" space="preserve">
   <text fill="black" text-anchor="middle" dy=".4em" transform="translate(355,25)">
    Measurement XYZ and Expectation
   </text>
  </g>
 </g>
</svg>
